packages/components/icons/assets/VehicleWeight.svg

<svg viewBox="0 0 24 24" xmlns="http://www.w3.org/2000/svg" data-title="VehicleWeight" fill="currentColor" stroke="none">
  <path fill-rule="evenodd" clip-rule="evenodd" d="M12 20C16.4183 20 20 16.4183 20 12C20 7.58172 16.4183 4 12 4C7.58172 4 4 7.58172 4 12C4 16.4183 7.58172 20 12 20ZM12 19C15.866 19 19 15.866 19 12C19 8.13401 15.866 5 12 5C8.13401 5 5 8.13401 5 12C5 15.866 8.13401 19 12 19Z"/>
  <path d="M16.5714 15.9285H7.42855C7.2857 15.9285 7.21427 15.857 7.14284 15.7856C7.07141 15.7142 7.07141 15.5713 7.07141 15.4285L8.99998 9.57132C9.14284 9.4999 9.21427 9.35704 9.42855 9.35704H10.2143C10.0714 9.07132 9.99998 8.78561 9.99998 8.42847C9.99998 7.28561 10.9286 6.42847 12 6.42847C13.0714 6.42847 14 7.35704 14 8.42847C14 8.78561 13.9286 9.07132 13.7857 9.35704H14.5714C14.7143 9.35704 14.8571 9.42847 14.9286 9.57132L16.8571 15.4285C16.9286 15.5713 16.8571 15.6428 16.7857 15.7856C16.7857 15.857 16.6428 15.9285 16.5714 15.9285ZM7.92855 15.2142H16.0714L14.3571 10.0713H13.0714C12.8571 10.0713 12.7857 9.9999 12.7143 9.85704C12.6428 9.71418 12.7143 9.57132 12.7857 9.42847C13.1428 9.21418 13.2857 8.85704 13.2857 8.42847C13.2857 7.71418 12.7143 7.14275 12 7.14275C11.2857 7.14275 10.7143 7.71418 10.7143 8.42847C10.7143 8.85704 10.9286 9.21418 11.2143 9.42847C11.2857 9.57132 11.3571 9.71418 11.2857 9.85704C11.2143 9.9999 11.1428 10.0713 10.9286 10.0713H9.64284L7.92855 15.2142ZM12 7.78561C12.3571 7.78561 12.7143 8.07132 12.7143 8.4999C12.7143 8.85704 12.4286 9.21418 12 9.21418C11.5714 9.21418 11.2857 8.85704 11.2857 8.42847C11.2857 8.07132 11.6428 7.78561 12 7.78561Z"/>
  <path d="M9.85712 13.9624V11.7144H10.4308V12.6933H10.4382L11.5228 11.7144H12.2112L10.9972 12.789L12.2631 13.9624H11.5672L10.4382 12.9357H10.4308V13.9624H9.85712Z"/>
  <path d="M13.1731 14.5715C12.9979 14.5715 12.8338 14.5556 12.6808 14.5237C12.5302 14.4918 12.3982 14.4418 12.2847 14.3738L12.4365 14.0454C12.5352 14.0985 12.6462 14.1389 12.7696 14.1665C12.8954 14.1963 13.0139 14.2112 13.1249 14.2112C13.4408 14.2112 13.5987 14.0857 13.5987 13.8349V13.6563C13.5494 13.7371 13.4716 13.8019 13.3655 13.8508C13.2594 13.8997 13.1434 13.9242 13.0176 13.9242C12.8547 13.9242 12.7128 13.8923 12.5919 13.8285C12.471 13.7626 12.3772 13.6712 12.3106 13.5543C12.244 13.4374 12.2107 13.3002 12.2107 13.1429C12.2107 12.9877 12.244 12.8517 12.3106 12.7348C12.3772 12.6178 12.471 12.5275 12.5919 12.4637C12.7128 12.3978 12.8547 12.3649 13.0176 12.3649C13.1484 12.3649 13.2656 12.3893 13.3692 12.4382C13.4729 12.4871 13.5494 12.5519 13.5987 12.6327V12.3968H14.1428V13.7807C14.1428 14.0443 14.0602 14.242 13.8948 14.3738C13.7295 14.5056 13.4889 14.5715 13.1731 14.5715ZM13.1842 13.5638C13.3075 13.5638 13.4062 13.5266 13.4803 13.4522C13.5568 13.3778 13.595 13.2747 13.595 13.1429C13.595 13.0111 13.5568 12.9091 13.4803 12.8368C13.4062 12.7624 13.3075 12.7252 13.1842 12.7252C13.0583 12.7252 12.9584 12.7624 12.8843 12.8368C12.8103 12.9091 12.7733 13.0111 12.7733 13.1429C12.7733 13.2747 12.8103 13.3778 12.8843 13.4522C12.9584 13.5266 13.0583 13.5638 13.1842 13.5638Z"/>
</svg>

<svg viewBox="0 0 24 24" xmlns="http://www.w3.org/2000/svg" data-title="VehicleWeight" fill="currentColor" stroke="none">
  <path fill-rule="evenodd" d="m12,20c4.42,0,8-3.58,8-8s-3.58-8-8-8S4,7.58,4,12s3.58,8,8,8Zm0-1c3.87,0,7-3.13,7-7s-3.13-7-7-7-7,3.13-7,7,3.13,7,7,7Z"/>
  <path d="m16.57,15.93H7.43c-.14,0-.21-.07-.29-.14-.07-.07-.07-.21-.07-.36l1.93-5.86c.14-.07.21-.21.43-.21h.79c-.14-.29-.21-.57-.21-.93,0-1.14.93-2,2-2s2,.93,2,2c0,.36-.07.64-.21.93h.79c.14,0,.29.07.36.21l1.93,5.86c.07.14,0,.21-.07.36,0,.07-.14.14-.21.14Zm-8.64-.71h8.14l-1.71-5.14h-1.29c-.21,0-.29-.07-.36-.21-.07-.14,0-.29.07-.43.36-.21.5-.57.5-1,0-.71-.57-1.29-1.29-1.29s-1.29.57-1.29,1.29c0,.43.21.79.5,1,.07.14.14.29.07.43-.07.14-.14.21-.36.21h-1.29l-1.71,5.14Zm4.07-7.43c.36,0,.71.29.71.71,0,.36-.29.71-.71.71s-.71-.36-.71-.79c0-.36.36-.64.71-.64Z"/>
  <path d="m9.86,13.96v-2.25h.57v.98h0l1.08-.98h.69l-1.21,1.07,1.27,1.17h-.7l-1.13-1.03h0v1.03h-.57Z"/>
  <path d="m13.17,14.57c-.18,0-.34-.02-.49-.05-.15-.03-.28-.08-.4-.15l.15-.33c.1.05.21.09.33.12.13.03.24.04.36.04.32,0,.47-.13.47-.38v-.18c-.05.08-.13.15-.23.19-.11.05-.22.07-.35.07-.16,0-.3-.03-.43-.1-.12-.07-.21-.16-.28-.27-.07-.12-.1-.25-.1-.41s.03-.29.1-.41c.07-.12.16-.21.28-.27.12-.07.26-.1.43-.1.13,0,.25.02.35.07.1.05.18.11.23.19v-.24h.54v1.38c0,.26-.08.46-.25.59-.17.13-.41.2-.72.2Zm.01-1.01c.12,0,.22-.04.3-.11.08-.07.11-.18.11-.31s-.04-.23-.11-.31c-.07-.07-.17-.11-.3-.11s-.23.04-.3.11c-.07.07-.11.17-.11.31s.04.23.11.31c.07.07.17.11.3.11Z"/>
</svg>
